Origami/64x64/apps/baka-mplayer.svg

<svg xmlns="http://www.w3.org/2000/svg" width="64" height="64" version="1.1" viewBox="0 0 64 64">
 <path style="opacity:0.2;fill-rule:evenodd" d="m 4.0117994,23.872132 c -0.001,0.555998 -0.0118,1.197996 -0.0118,1.713994 C 3.9999994,50.720036 18.559948,61 31.9999,61 45.439852,61 59.999801,50.720036 59.999801,25.586126 c 0,-0.513998 -0.01,-1.159996 -0.012,-1.713994 -0.114,24.917911 -14.599949,35.127875 -27.987901,35.127875 -13.387152,0 -27.873901,-10.209964 -27.9879006,-35.127875 z"/>
 <path style="fill:#4f4f4f;fill-rule:evenodd" d="m 6.2399914,4.4422043 c -2.239992,2.2847919 -2.239992,13.2199527 -2.239992,20.1439287 0,25.133911 14.5599486,35.413874 27.9999006,35.413874 13.439952,0 27.999901,-10.281963 27.999901,-35.413874 0,-6.855376 0,-17.8591368 -2.239992,-20.1439287 -2.239992,-2.2847919 -17.07994,4.806783 -21.559924,9.3763667 l -8.39997,0 C 23.319931,9.2489873 8.4799835,2.1574124 6.2399914,4.4422043 Z"/>
 <g style="opacity:0.2" transform="matrix(1.9999929,0,0,1.9999929,1.3599495e-5,1.0001846)">
  <path d="M 19,23.172 C 19,24.734 17.657,26 16,26 c -1.657,0 -3,-1.266 -3,-2.828 0,-1.5623 6,-1.5623 6,0 z"/>
  <path style="fill-rule:evenodd" d="m 10,9 a 5,6 0 0 0 -5,6 5,6 0 0 0 5,6 5,6 0 0 0 5,-6 5,6 0 0 0 -5,-6 z m 0,2 a 3,4 0 0 1 3,4 3,4 0 0 1 -3,4 3,4 0 0 1 -3,-4 3,4 0 0 1 3,-4 z"/>
  <path style="fill-rule:evenodd" d="m 22,9 a 5,6 0 0 0 -5,6 5,6 0 0 0 5,6 5,6 0 0 0 5,-6 5,6 0 0 0 -5,-6 z m 0,2 a 3,4 0 0 1 3,4 3,4 0 0 1 -3,4 3,4 0 0 1 -3,-4 3,4 0 0 1 3,-4 z"/>
 </g>
 <g style="fill:#ffffff" transform="matrix(1.9999929,0,0,1.9999929,1.3599495e-5,2.201e-4)">
  <path d="M 19,23.172 C 19,24.734 17.657,26 16,26 c -1.657,0 -3,-1.266 -3,-2.828 0,-1.5623 6,-1.5623 6,0 z"/>
  <path style="fill-rule:evenodd" d="m 10,9 a 5,6 0 0 0 -5,6 5,6 0 0 0 5,6 5,6 0 0 0 5,-6 5,6 0 0 0 -5,-6 z m 0,2 a 3,4 0 0 1 3,4 3,4 0 0 1 -3,4 3,4 0 0 1 -3,-4 3,4 0 0 1 3,-4 z"/>
  <path style="fill-rule:evenodd" d="m 22,9 a 5,6 0 0 0 -5,6 5,6 0 0 0 5,6 5,6 0 0 0 5,-6 5,6 0 0 0 -5,-6 z m 0,2 a 3,4 0 0 1 3,4 3,4 0 0 1 -3,4 3,4 0 0 1 -3,-4 3,4 0 0 1 3,-4 z"/>
 </g>
 <path style="opacity:0.1;fill:#ffffff;fill-rule:evenodd" d="M 7.625 3.9980469 L 7.625 4 C 6.9960023 4.0157999 6.5182802 4.1558072 6.2382812 4.4414062 C 3.9982891 6.7261982 4 17.663561 4 24.585938 C 4 24.630247 4.0032952 24.67259 4.0058594 24.714844 C 4.0088286 17.779572 4.0831838 7.6396056 6.2382812 5.4414062 C 6.5182802 5.1558072 6.9960023 5.0157999 7.625 5 C 12.028584 4.8892004 23.880795 10.821726 27.800781 14.820312 L 36.199219 14.820312 C 40.679203 10.250528 55.521726 3.1560143 57.761719 5.4414062 C 59.91641 7.6386144 59.991157 17.835173 59.994141 24.714844 C 59.996854 24.672242 60 24.628658 60 24.583984 C 60 17.729408 60.001711 6.7255981 57.761719 4.4414062 C 55.521726 2.1560143 40.679203 9.2505288 36.199219 13.820312 L 27.800781 13.820312 C 23.880795 9.8217267 12.028584 3.8872473 7.625 3.9980469 z"/>
</svg>

<svg width="64" height="64" version="1.1" viewBox="0 0 64 64" xmlns="http://www.w3.org/2000/svg">
 <path d="m4.0117994 23.872132c-1e-3 0.555998-0.0118 1.197996-0.0118 1.713994 0 25.13391 14.559949 35.413874 27.999901 35.413874s27.999901-10.279964 27.999901-35.413874c0-0.513998-0.01-1.159996-0.012-1.713994-0.114 24.917911-14.599949 35.127875-27.987901 35.127875-13.387152 0-27.873901-10.209964-27.987901-35.127875z" style="fill-rule:evenodd;opacity:.2"/>
 <path d="m6.2399914 4.4422043c-2.239992 2.2847919-2.239992 13.219953-2.239992 20.143929 0 25.133911 14.559949 35.413874 27.999901 35.413874s27.999901-10.281963 27.999901-35.413874c0-6.855376 0-17.859137-2.239992-20.143929s-17.07994 4.806783-21.559924 9.3763667h-8.39997c-4.479984-4.5695837-19.319932-11.661159-21.559924-9.3763667z" style="fill-rule:evenodd;fill:#4f4f4f"/>
 <g transform="matrix(1.9999929,0,0,1.9999929,1.3599495e-5,1.0001846)" style="opacity:.2">
  <path d="m19 23.172c0 1.562-1.343 2.828-3 2.828s-3-1.266-3-2.828c0-1.5623 6-1.5623 6 0z"/>
  <path d="m10 9a5 6 0 0 0 -5 6 5 6 0 0 0 5 6 5 6 0 0 0 5 -6 5 6 0 0 0 -5 -6zm0 2a3 4 0 0 1 3 4 3 4 0 0 1 -3 4 3 4 0 0 1 -3 -4 3 4 0 0 1 3 -4z" style="fill-rule:evenodd"/>
  <path d="m22 9a5 6 0 0 0 -5 6 5 6 0 0 0 5 6 5 6 0 0 0 5 -6 5 6 0 0 0 -5 -6zm0 2a3 4 0 0 1 3 4 3 4 0 0 1 -3 4 3 4 0 0 1 -3 -4 3 4 0 0 1 3 -4z" style="fill-rule:evenodd"/>
 </g>
 <g transform="matrix(1.9999929,0,0,1.9999929,1.3599495e-5,2.201e-4)" style="fill:#ffffff">
  <path d="m19 23.172c0 1.562-1.343 2.828-3 2.828s-3-1.266-3-2.828c0-1.5623 6-1.5623 6 0z"/>
  <path d="m10 9a5 6 0 0 0 -5 6 5 6 0 0 0 5 6 5 6 0 0 0 5 -6 5 6 0 0 0 -5 -6zm0 2a3 4 0 0 1 3 4 3 4 0 0 1 -3 4 3 4 0 0 1 -3 -4 3 4 0 0 1 3 -4z" style="fill-rule:evenodd"/>
  <path d="m22 9a5 6 0 0 0 -5 6 5 6 0 0 0 5 6 5 6 0 0 0 5 -6 5 6 0 0 0 -5 -6zm0 2a3 4 0 0 1 3 4 3 4 0 0 1 -3 4 3 4 0 0 1 -3 -4 3 4 0 0 1 3 -4z" style="fill-rule:evenodd"/>
 </g>
 <path d="m7.625 3.9980469v0.0019531c-0.6289977 0.0157999-1.1067198 0.1558072-1.3867188 0.4414062-2.2399921 2.284792-2.2382812 13.222155-2.2382812 20.144532 0 0.044309 0.0032952 0.086652 0.0058594 0.128906 0.0029692-6.935272 0.0773244-17.075238 2.2324218-19.273438 0.279999-0.285599 0.7577211-0.4256063 1.3867188-0.4414062 4.403584-0.1107996 16.255795 5.821726 20.175781 9.820312h8.398438c4.479984-4.569784 19.322507-11.664298 21.5625-9.3789058 2.154691 2.1972082 2.229438 12.393767 2.232422 19.273438 0.002713-0.042602 0.005859-0.086186 0.005859-0.13086 0-6.854576 0.001711-17.858386-2.238281-20.142578-2.239993-2.2853919-17.082516 4.8091226-21.5625 9.3789058h-8.398438c-3.919986-3.9985853-15.772197-9.9330647-20.175781-9.8222651z" style="fill-rule:evenodd;fill:#ffffff;opacity:.1"/>
</svg>
